build/images/common/insta.svg

<svg width="23" height="23" viewBox="0 0 23 23" fill="none" xmlns="http://www.w3.org/2000/svg">
<path fill-rule="evenodd" clip-rule="evenodd" d="M11.4225 0.642857C8.70821 0.642857 8.27963 0.642857 7.13678 0.714286C5.99392 0.785714 5.13678 0.928572 4.49392 1.21429C3.77963 1.5 3.13678 1.85714 2.56535 2.5C1.92249 3.14286 1.56535 3.71429 1.27963 4.42857C0.993921 5.14286 0.851063 5.92857 0.779634 7.07143C0.708206 8.21429 0.708206 8.64286 0.708206 11.5714C0.708206 14.5714 0.708206 14.9286 0.779634 16.0714C0.851063 17.2143 0.993921 18.0714 1.27963 18.7143C1.56535 19.4286 1.92249 20.0714 2.56535 20.6429C3.20821 21.2857 3.77963 21.6429 4.49392 21.9286C5.20821 22.2143 5.99392 22.3571 7.13678 22.4286C8.27963 22.5 8.70821 22.5 11.6368 22.5C14.6368 22.5 14.9939 22.5 16.1368 22.4286C17.2796 22.3571 18.1368 22.2143 18.7796 21.9286C19.4939 21.6429 20.1368 21.2857 20.7082 20.6429C21.3511 20 21.7082 19.4286 21.9939 18.7143C22.2796 18 22.4225 17.2143 22.4939 16.0714C22.5653 14.9286 22.5654 14.5714 22.5654 11.7857V11.2143C22.5654 8.5 22.5653 8.07143 22.4939 6.92857C22.4225 5.78572 22.2796 4.92857 21.9939 4.28571C21.7082 3.57143 21.3511 2.92857 20.7082 2.35714C20.0653 1.71429 19.4939 1.35714 18.7796 1.07143C18.0653 0.785714 17.2796 0.642857 16.1368 0.571429C14.9939 0.5 14.6368 0.5 11.8511 0.5H11.4225V0.642857ZM18.9225 5.71429C18.9225 6.42857 18.3511 7 17.6368 7C16.9225 7 16.3511 6.42857 16.3511 5.71429C16.3511 5 16.9225 4.42857 17.6368 4.42857C18.2796 4.42857 18.9225 5 18.9225 5.71429ZM11.7082 15.2143C9.70821 15.2143 8.06535 13.5714 8.06535 11.5714C8.06535 9.57143 9.70821 7.92857 11.7082 7.92857C13.7082 7.92857 15.3511 9.57143 15.3511 11.5714C15.3511 13.5714 13.7082 15.2143 11.7082 15.2143ZM11.7082 5.92857C14.8511 5.92857 17.3511 8.42857 17.3511 11.5714C17.3511 14.7143 14.8511 17.2143 11.7082 17.2143C8.56535 17.2143 6.06535 14.7143 6.06535 11.5714C6.06535 8.42857 8.63678 5.92857 11.7082 5.92857ZM11.7082 2.57143C14.6368 2.57143 14.9939 2.57143 16.1368 2.64286C17.2082 2.71429 17.7796 2.85714 18.2082 3C18.7082 3.21429 19.0653 3.42857 19.4939 3.78571C19.8511 4.14286 20.1368 4.5 20.2796 5.07143C20.4225 5.42857 20.6368 6.07143 20.6368 7.14286C20.7082 8.28571 20.7082 8.64286 20.7082 11.5714C20.7082 14.5 20.7082 14.8571 20.6368 16C20.5654 17.0714 20.4225 17.6429 20.2796 18.0714C20.0654 18.5714 19.8511 18.9286 19.4939 19.3571C19.1368 19.7143 18.7796 20 18.2082 20.1429C17.8511 20.2857 17.2082 20.5 16.1368 20.5C14.9939 20.5714 14.6368 20.5714 11.7082 20.5714C8.77964 20.5714 8.42249 20.5714 7.27963 20.5C6.20821 20.4286 5.63678 20.2857 5.20821 20.1429C4.70821 19.9286 4.35106 19.7143 3.92249 19.3571C3.56535 19 3.27964 18.6429 3.13678 18.0714C2.99392 17.7143 2.77964 17.0714 2.77964 16C2.70821 14.8571 2.70821 14.5 2.70821 11.5714C2.70821 8.64286 2.70821 8.28571 2.77964 7.14286C2.85106 6.07143 2.99392 5.5 3.13678 5.07143C3.35106 4.57143 3.56535 4.21429 3.92249 3.78571C4.27963 3.42857 4.63678 3.14286 5.20821 3C5.56535 2.85714 6.20821 2.64286 7.27963 2.64286C8.42249 2.57143 8.77964 2.57143 11.7082 2.57143Z" fill="white"/>
</svg>

<svg width="23" height="23" fill="none" xmlns="http://www.w3.org/2000/svg"><path fill-rule="evenodd" clip-rule="evenodd" d="M11.422.643c-2.714 0-3.142 0-4.285.071-1.143.072-2 .215-2.643.5-.714.286-1.357.643-1.929 1.286-.643.643-1 1.214-1.285 1.929-.286.714-.429 1.5-.5 2.642-.072 1.143-.072 1.572-.072 4.5 0 3 0 3.358.072 4.5.071 1.143.214 2 .5 2.643.285.715.642 1.357 1.285 1.929.643.643 1.215 1 1.929 1.286.714.285 1.5.428 2.643.5 1.143.071 1.571.071 4.5.071 3 0 3.357 0 4.5-.071 1.143-.072 2-.215 2.643-.5.714-.286 1.357-.643 1.928-1.286.643-.643 1-1.214 1.286-1.929.286-.714.428-1.5.5-2.643.071-1.142.071-1.5.071-4.285v-.572c0-2.714 0-3.143-.071-4.285-.072-1.143-.214-2-.5-2.643-.286-.715-.643-1.357-1.286-1.929-.643-.643-1.214-1-1.928-1.286-.715-.285-1.5-.428-2.643-.5C14.994.5 14.637.5 11.85.5h-.429v.143zm7.5 5.071A1.28 1.28 0 0117.637 7a1.28 1.28 0 01-1.286-1.286 1.28 1.28 0 011.286-1.285c.643 0 1.285.571 1.285 1.285zm-7.214 9.5c-2 0-3.643-1.643-3.643-3.643 0-2 1.643-3.642 3.643-3.642 2 0 3.643 1.642 3.643 3.642s-1.643 3.643-3.643 3.643zm0-9.285a5.61 5.61 0 015.643 5.642 5.61 5.61 0 01-5.643 5.643 5.61 5.61 0 01-5.643-5.643c0-3.142 2.572-5.642 5.643-5.642zm0-3.358c2.929 0 3.286 0 4.429.072 1.071.071 1.643.214 2.071.357.5.214.857.429 1.286.786.357.357.643.714.786 1.285.142.358.357 1 .357 2.072.071 1.143.071 1.5.071 4.428 0 2.929 0 3.286-.071 4.429-.072 1.071-.215 1.643-.357 2.071a4.78 4.78 0 01-.786 1.286c-.357.357-.714.643-1.286.786-.357.143-1 .357-2.071.357-1.143.071-1.5.071-4.429.071-2.928 0-3.286 0-4.428-.071-1.072-.071-1.643-.214-2.072-.357a4.784 4.784 0 01-1.286-.786c-.357-.357-.642-.714-.785-1.286-.143-.357-.357-1-.357-2.071-.072-1.143-.072-1.5-.072-4.429 0-2.928 0-3.285.072-4.428.071-1.072.214-1.643.357-2.072.214-.5.428-.857.785-1.285.358-.357.715-.643 1.286-.786.357-.143 1-.357 2.072-.357 1.142-.072 1.5-.072 4.428-.072z" fill="#fff"/></svg>
